X:1
T:Title
%%score { 1 | ( 2 3 ) }
L:1/8
M:3/4
K:F
V:1 treble nm="Grand Piano"
V:2 bass 
V:3 bass 
V:1
 z2 z[Q:1/4=86] C CF | A3 C CF | A4 A2 | [EG]3 [EG] [EA][EG] |[M:3/8] F3 | CCF |[M:3/4] A3 C CF | %7
 A4 A2 | [EG]3 [EG] [EA][EG] |[M:3/8] F3 |[M:4/4] c3 c A>G F2 | c3 c A>G F2 | %12
[M:3/4] A>A AA [B,EG][B,EG] |[M:3/8] [B,EG]3 | [B,EG][A,F][CEG] | %15
[M:3/4] [CFA]3 [A,CF] [G,CE][F,CF] | [CG]4 [Cc]2 | [CA]3 G FD |[M:3/8] [A,C]3 | CCF | %20
[M:3/4] A3 C CF | A4 A2 | [B,EG]3 [DEB] [CEA][B,EG] |[M:3/8] [A,F]3 |] %24
V:2
 z2 z [F,A,] [F,A,][F,A,C] | [F,CF]3 [F,A,] [F,A,][F,A,C] | [F,CF]4 [F,CF]2 | %3
 [C,B,]3 [C,B,] [C,C][C,B,] |[M:3/8] [F,A,]3 | [F,A,][F,A,][F,A,C] | %6
[M:3/4] [F,CF]3 [F,A,] [F,A,][F,A,C] | [F,CF]4 [F,CF]2 | [C,B,]3 [C,B,] [C,C][C,B,] | %9
[M:3/8] [F,A,]3 |[M:4/4] z4 C2 z2 | z4 C2 z2 |[M:3/4] [F,CF]>[F,CF] [F,CF][F,CF] C,C, | %13
[M:3/8] C,3 | C,C,C, |[M:3/4] F,3 F, C,A,, | [C,E,]4 [A,,F,]2 | %17
 [F,,F,]3 [C,E,B,] [D,F,A,][B,,F,B,] |[M:3/8] [F,,F,]3 | [F,A,][F,A,][F,A,C] | %20
[M:3/4] [F,CF]3 [F,A,] [F,A,][F,A,C] | [F,CF]4 [F,CF]2 | C,3 C, C,C, |[M:3/8] F,3 |] %24
V:3
 x6 | x6 | x6 | x6 |[M:3/8] x3 | x3 |[M:3/4] x6 | x6 | x6 |[M:3/8] x3 | %10
[M:4/4] [F,A,F]3 [F,A,F] [F,F]->[F,B,F] [F,A,C]2 | [F,A,F]3 [F,A,F] [F,F]->[F,B,F] [F,A,C]2 | %12
[M:3/4] x6 |[M:3/8] x3 | x3 |[M:3/4] x6 | x6 | x6 |[M:3/8] x3 | x3 |[M:3/4] x6 | x6 | x6 | %23
[M:3/8] x3 |] %24

